X: 17147
T: Helston Furry Dance, The
R: reel
M: 4/4
K: Gmajor
|:D2|G3 A B3 c|d2 d2 d2 ef|g2 d2 dedc|B2 G2 G2:|
|:(3GAB|c2 e2 e2 dc|Bcde ddef|g2 d2 dedc|B2 G2 G2:|

